static/img/kroki/f728901def9f84e0b408eda3cd9092ec.svg

<?xml version="1.0" encoding="us-ascii" standalone="no"?><svg xmlns="http://www.w3.org/2000/svg" xmlns:xlink="http://www.w3.org/1999/xlink" contentStyleType="text/css" height="872px" preserveAspectRatio="none" style="width:404px;height:872px;" version="1.1" viewBox="0 0 404 872" width="404px" zoomAndPan="magnify"><defs/><g><!--class aws_resource--><g id="elem_aws_resource"><rect codeLine="22" fill="#3D176E" height="74.0859" id="aws_resource" rx="2.5" ry="2.5" style="stroke:#000D19;stroke-width:0.5;" width="155" x="124.5" y="438.76"/><ellipse cx="139.5" cy="458.6545" fill="#ADD1B2" rx="11" ry="11" style="stroke:#181818;stroke-width:1.0;"/><path d="M142.4688,464.2952 Q141.8906,464.592 141.25,464.7327 Q140.6094,464.8889 139.9063,464.8889 Q137.4063,464.8889 136.0781,463.2483 Q134.7656,461.592 134.7656,458.467 Q134.7656,455.342 136.0781,453.6858 Q137.4063,452.0295 139.9063,452.0295 Q140.6094,452.0295 141.25,452.1858 Q141.9063,452.342 142.4688,452.6389 L142.4688,455.3577 Q141.8438,454.7795 141.25,454.5139 Q140.6563,454.2327 140.0313,454.2327 Q138.6875,454.2327 138,455.3108 Q137.3125,456.3733 137.3125,458.467 Q137.3125,460.5608 138,461.6389 Q138.6875,462.7014 140.0313,462.7014 Q140.6563,462.7014 141.25,462.4358 Q141.8438,462.1545 142.4688,461.5764 L142.4688,464.2952 Z " fill="#000000"/><text fill="#D9B8FF" font-family="Helvetica" font-size="17" lengthAdjust="spacing" textLength="113" x="158.5" y="464.5398">aws_resource</text><line style="stroke:#000D19;stroke-width:0.5;" x1="125.5" x2="278.5" y1="478.5491" y2="478.5491"/><text fill="#D9B8FF" font-family="sans-serif" font-size="14" font-weight="bold" lengthAdjust="spacing" textLength="26" x="135.5" y="500.5442">arn</text><text fill="#D9B8FF" font-family="sans-serif" font-size="14" lengthAdjust="spacing" textLength="48" x="161.5" y="500.5442">: string</text></g><!--class aws_sns_platform_application--><g id="elem_aws_sns_platform_application"><rect codeLine="25" fill="#3D176E" height="231.8672" id="aws_sns_platform_application" rx="2.5" ry="2.5" style="stroke:#000D19;stroke-width:0.5;" width="390" x="7" y="633.84"/><ellipse cx="67.75" cy="653.7345" fill="#ADD1B2" rx="11" ry="11" style="stroke:#181818;stroke-width:1.0;"/><path d="M70.7188,659.3752 Q70.1406,659.672 69.5,659.8127 Q68.8594,659.9689 68.1563,659.9689 Q65.6563,659.9689 64.3281,658.3283 Q63.0156,656.672 63.0156,653.547 Q63.0156,650.422 64.3281,648.7658 Q65.6563,647.1095 68.1563,647.1095 Q68.8594,647.1095 69.5,647.2658 Q70.1563,647.422 70.7188,647.7189 L70.7188,650.4377 Q70.0938,649.8595 69.5,649.5939 Q68.9063,649.3127 68.2813,649.3127 Q66.9375,649.3127 66.25,650.3908 Q65.5625,651.4533 65.5625,653.547 Q65.5625,655.6408 66.25,656.7189 Q66.9375,657.7814 68.2813,657.7814 Q68.9063,657.7814 69.5,657.5158 Q70.0938,657.2345 70.7188,656.6564 L70.7188,659.3752 Z " fill="#000000"/><text fill="#D9B8FF" font-family="Helvetica" font-size="17" lengthAdjust="spacing" textLength="250" x="93.25" y="659.6198">aws_sns_platform_application</text><line style="stroke:#000D19;stroke-width:0.5;" x1="8" x2="396" y1="673.6291" y2="673.6291"/><text fill="#D9B8FF" font-family="sans-serif" font-size="14" font-weight="bold" lengthAdjust="spacing" textLength="320" x="18" y="695.6242">application_apple_certificate_expiry_date</text><text fill="#D9B8FF" font-family="sans-serif" font-size="14" lengthAdjust="spacing" textLength="48" x="338" y="695.6242">: string</text><text fill="#D9B8FF" font-family="sans-serif" font-size="14" font-weight="bold" lengthAdjust="spacing" textLength="290" x="18" y="721.9211">application_apple_platform_bundle_id</text><text fill="#D9B8FF" font-family="sans-serif" font-size="14" lengthAdjust="spacing" textLength="48" x="308" y="721.9211">: string</text><text fill="#D9B8FF" font-family="sans-serif" font-size="14" font-weight="bold" lengthAdjust="spacing" textLength="275" x="18" y="748.2179">application_apple_platform_team_id</text><text fill="#D9B8FF" font-family="sans-serif" font-size="14" lengthAdjust="spacing" textLength="48" x="293" y="748.2179">: string</text><text fill="#D9B8FF" font-family="sans-serif" font-size="14" font-weight="bold" lengthAdjust="spacing" textLength="282" x="18" y="774.5148">application_event_endpoint_created</text><text fill="#D9B8FF" font-family="sans-serif" font-size="14" lengthAdjust="spacing" textLength="48" x="300" y="774.5148">: string</text><text fill="#D9B8FF" font-family="sans-serif" font-size="14" font-weight="bold" lengthAdjust="spacing" textLength="281" x="18" y="800.8117">application_event_endpoint_deleted</text><text fill="#D9B8FF" font-family="sans-serif" font-size="14" lengthAdjust="spacing" textLength="48" x="299" y="800.8117">: string</text><text fill="#D9B8FF" font-family="sans-serif" font-size="14" font-weight="bold" lengthAdjust="spacing" textLength="271" x="18" y="827.1086">application_event_endpoint_failure</text><text fill="#D9B8FF" font-family="sans-serif" font-size="14" lengthAdjust="spacing" textLength="48" x="289" y="827.1086">: string</text><text fill="#D9B8FF" font-family="sans-serif" font-size="14" font-weight="bold" lengthAdjust="spacing" textLength="286" x="18" y="853.4054">application_event_endpoint_updated</text><text fill="#D9B8FF" font-family="sans-serif" font-size="14" lengthAdjust="spacing" textLength="48" x="304" y="853.4054">: string</text></g><!--class resource--><g id="elem_resource"><rect codeLine="34" fill="#3D176E" height="310.7578" id="resource" rx="2.5" ry="2.5" style="stroke:#000D19;stroke-width:0.5;" width="227" x="88.5" y="7"/><ellipse cx="157.25" cy="26.8945" fill="#ADD1B2" rx="11" ry="11" style="stroke:#181818;stroke-width:1.0;"/><path d="M160.2188,32.5352 Q159.6406,32.832 159,32.9727 Q158.3594,33.1289 157.6563,33.1289 Q155.1563,33.1289 153.8281,31.4883 Q152.5156,29.832 152.5156,26.707 Q152.5156,23.582 153.8281,21.9258 Q155.1563,20.2695 157.6563,20.2695 Q158.3594,20.2695 159,20.4258 Q159.6563,20.582 160.2188,20.8789 L160.2188,23.5977 Q159.5938,23.0195 159,22.7539 Q158.4063,22.4727 157.7813,22.4727 Q156.4375,22.4727 155.75,23.5508 Q155.0625,24.6133 155.0625,26.707 Q155.0625,28.8008 155.75,29.8789 Q156.4375,30.9414 157.7813,30.9414 Q158.4063,30.9414 159,30.6758 Q159.5938,30.3945 160.2188,29.8164 L160.2188,32.5352 Z " fill="#000000"/><text fill="#D9B8FF" font-family="Helvetica" font-size="17" lengthAdjust="spacing" textLength="71" x="182.75" y="32.7798">resource</text><line style="stroke:#000D19;stroke-width:0.5;" x1="89.5" x2="314.5" y1="46.7891" y2="46.7891"/><text fill="#D9B8FF" font-family="sans-serif" font-size="14" font-weight="bold" lengthAdjust="spacing" textLength="29" x="99.5" y="68.7842">age</text><text fill="#D9B8FF" font-family="sans-serif" font-size="14" lengthAdjust="spacing" textLength="66" x="128.5" y="68.7842">: duration</text><text fill="#D9B8FF" font-family="sans-serif" font-size="14" font-weight="bold" lengthAdjust="spacing" textLength="43" x="99.5" y="95.0811">atime</text><text fill="#D9B8FF" font-family="sans-serif" font-size="14" lengthAdjust="spacing" textLength="70" x="142.5" y="95.0811">: datetime</text><text fill="#D9B8FF" font-family="sans-serif" font-size="14" font-weight="bold" lengthAdjust="spacing" textLength="43" x="99.5" y="121.3779">ctime</text><text fill="#D9B8FF" font-family="sans-serif" font-size="14" lengthAdjust="spacing" textLength="70" x="142.5" y="121.3779">: datetime</text><text fill="#D9B8FF" font-family="sans-serif" font-size="14" font-weight="bold" lengthAdjust="spacing" textLength="14" x="99.5" y="147.6748">id</text><text fill="#D9B8FF" font-family="sans-serif" font-size="14" lengthAdjust="spacing" textLength="48" x="113.5" y="147.6748">: string</text><text fill="#D9B8FF" font-family="sans-serif" font-size="14" font-weight="bold" lengthAdjust="spacing" textLength="33" x="99.5" y="173.9717">kind</text><text fill="#D9B8FF" font-family="sans-serif" font-size="14" lengthAdjust="spacing" textLength="48" x="132.5" y="173.9717">: string</text><text fill="#D9B8FF" font-family="sans-serif" font-size="14" font-weight="bold" lengthAdjust="spacing" textLength="90" x="99.5" y="200.2686">last_access</text><text fill="#D9B8FF" font-family="sans-serif" font-size="14" lengthAdjust="spacing" textLength="66" x="189.5" y="200.2686">: duration</text><text fill="#D9B8FF" font-family="sans-serif" font-size="14" font-weight="bold" lengthAdjust="spacing" textLength="90" x="99.5" y="226.5654">last_update</text><text fill="#D9B8FF" font-family="sans-serif" font-size="14" lengthAdjust="spacing" textLength="66" x="189.5" y="226.5654">: duration</text><text fill="#D9B8FF" font-family="sans-serif" font-size="14" font-weight="bold" lengthAdjust="spacing" textLength="48" x="99.5" y="252.8623">mtime</text><text fill="#D9B8FF" font-family="sans-serif" font-size="14" lengthAdjust="spacing" textLength="70" x="147.5" y="252.8623">: datetime</text><text fill="#D9B8FF" font-family="sans-serif" font-size="14" font-weight="bold" lengthAdjust="spacing" textLength="43" x="99.5" y="279.1592">name</text><text fill="#D9B8FF" font-family="sans-serif" font-size="14" lengthAdjust="spacing" textLength="48" x="142.5" y="279.1592">: string</text><text fill="#D9B8FF" font-family="sans-serif" font-size="14" font-weight="bold" lengthAdjust="spacing" textLength="34" x="99.5" y="305.4561">tags</text><text fill="#D9B8FF" font-family="sans-serif" font-size="14" lengthAdjust="spacing" textLength="171" x="133.5" y="305.4561">: dictionary[string, string]</text></g><!--reverse link resource to aws_resource--><g id="link_resource_aws_resource"><path codeLine="46" d="M202,336.18 C202,381.21 202,408.34 202,438.51 " fill="none" id="resource-backto-aws_resource" style="stroke:#FFAF37;stroke-width:2.0;"/><polygon fill="none" points="202,318.18,196,336.18,208,336.18,202,318.18" style="stroke:#FFAF37;stroke-width:2.0;"/></g><!--reverse link aws_resource to aws_sns_platform_application--><g id="link_aws_resource_aws_sns_platform_application"><path codeLine="47" d="M202,531.2 C202,562.1 202,590.19 202,633.44 " fill="none" id="aws_resource-backto-aws_sns_platform_application" style="stroke:#FFAF37;stroke-width:2.0;"/><polygon fill="none" points="202,513.2,196,531.2,208,531.2,202,513.2" style="stroke:#FFAF37;stroke-width:2.0;"/></g><!--SRC=[bPHDRzim38Rl-HK2UWiM85cnfHbswG8CswKOrjs6mM0aAX5YVO2YcsKV_tsotQQodQJPJUBxa7mf4zuOXG9juBsmQ5T8SHItnWKWiEAMoE-MllGahhG6VJtlYn-zunU1Ex0eFc7vW6maz8bl6oEt3cCKhpFf0yZjcdpbL5kU2LnC4ZhEg6K9CTuoarbLZ9aPjLZTQDqd-qMlhjLi_XO7c2U5z8XCfrCrM_IH5rkTdVj0t9jVA6Rvezrvne7DGOk6Ekko9ZAJWq6Vz9CUlu1Ingt5copsjVL43gaJlz-0yhkQrb36l4ra9FIy3xWSJ8MB6wNdH-7Ffs1Plvo0NIm8ewz8elWz6e-1t7ZyBXMWP6BqDyEYYqKeWRKdMq08PPgIZNTjslEzqR2GI6nq7SC2VmP3-qAbSrRyMDQXmIePJdUZBarW17iEnuUqy0Kw5Rn91qcOt5oCAopnFt0Dfgm8ByMhe7fcdXw- -stMJKLLKLEbZh2nRIpbr-SKaqTYlNT9Uz8Df5vSW9Jftz7hq2YjlvvYZ_HnOBj3CwpRYaRMQK3xxwtswf7vaKOz3Fd-psGowUpagBEWp_gfPVm7]--></g></svg>

<svg xmlns="http://www.w3.org/2000/svg" width="404" height="872" viewBox="0 0 404 872"><rect width="155" height="74.086" x="124.5" y="438.76" fill="#3D176E" rx="2.5" ry="2.5" style="stroke:#000d19;stroke-width:.5"/><circle cx="139.5" cy="458.654" r="11" fill="#ADD1B2" style="stroke:#181818;stroke-width:1"/><path d="M142.469 464.295q-.578.297-1.219.438-.64.156-1.344.156-2.5 0-3.828-1.64-1.312-1.657-1.312-4.782t1.312-4.781q1.328-1.656 3.828-1.656.703 0 1.344.156.656.156 1.219.453v2.719q-.625-.579-1.219-.844-.594-.281-1.219-.281-1.344 0-2.031 1.078-.687 1.062-.687 3.156t.687 3.172q.688 1.062 2.031 1.062.625 0 1.219-.265.594-.281 1.219-.86z"/><text x="158.5" y="464.54" fill="#D9B8FF" font-family="Helvetica" font-size="17" textLength="113">aws_resource</text><path d="M125.5 478.549h153" style="stroke:#000d19;stroke-width:.5"/><text x="135.5" y="500.544" fill="#D9B8FF" font-family="sans-serif" font-size="14" font-weight="bold" textLength="26">arn</text><text x="161.5" y="500.544" fill="#D9B8FF" font-family="sans-serif" font-size="14" textLength="48">: string</text><rect width="390" height="231.867" x="7" y="633.84" fill="#3D176E" rx="2.5" ry="2.5" style="stroke:#000d19;stroke-width:.5"/><circle cx="67.75" cy="653.735" r="11" fill="#ADD1B2" style="stroke:#181818;stroke-width:1"/><path d="M70.719 659.375q-.578.297-1.219.438-.64.156-1.344.156-2.5 0-3.828-1.64-1.312-1.657-1.312-4.782t1.312-4.781q1.328-1.656 3.828-1.656.703 0 1.344.156.656.156 1.219.453v2.719q-.625-.578-1.219-.844-.594-.281-1.219-.281-1.344 0-2.031 1.078-.687 1.062-.687 3.156t.687 3.172q.688 1.062 2.031 1.062.625 0 1.219-.265.594-.281 1.219-.86z"/><text x="93.25" y="659.62" fill="#D9B8FF" font-family="Helvetica" font-size="17" textLength="250">aws_sns_platform_application</text><path d="M8 673.629h388" style="stroke:#000d19;stroke-width:.5"/><text x="18" y="695.624" fill="#D9B8FF" font-family="sans-serif" font-size="14" font-weight="bold" textLength="320">application_apple_certificate_expiry_date</text><text x="338" y="695.624" fill="#D9B8FF" font-family="sans-serif" font-size="14" textLength="48">: string</text><text x="18" y="721.921" fill="#D9B8FF" font-family="sans-serif" font-size="14" font-weight="bold" textLength="290">application_apple_platform_bundle_id</text><text x="308" y="721.921" fill="#D9B8FF" font-family="sans-serif" font-size="14" textLength="48">: string</text><text x="18" y="748.218" fill="#D9B8FF" font-family="sans-serif" font-size="14" font-weight="bold" textLength="275">application_apple_platform_team_id</text><text x="293" y="748.218" fill="#D9B8FF" font-family="sans-serif" font-size="14" textLength="48">: string</text><text x="18" y="774.515" fill="#D9B8FF" font-family="sans-serif" font-size="14" font-weight="bold" textLength="282">application_event_endpoint_created</text><text x="300" y="774.515" fill="#D9B8FF" font-family="sans-serif" font-size="14" textLength="48">: string</text><text x="18" y="800.812" fill="#D9B8FF" font-family="sans-serif" font-size="14" font-weight="bold" textLength="281">application_event_endpoint_deleted</text><text x="299" y="800.812" fill="#D9B8FF" font-family="sans-serif" font-size="14" textLength="48">: string</text><text x="18" y="827.109" fill="#D9B8FF" font-family="sans-serif" font-size="14" font-weight="bold" textLength="271">application_event_endpoint_failure</text><text x="289" y="827.109" fill="#D9B8FF" font-family="sans-serif" font-size="14" textLength="48">: string</text><text x="18" y="853.405" fill="#D9B8FF" font-family="sans-serif" font-size="14" font-weight="bold" textLength="286">application_event_endpoint_updated</text><text x="304" y="853.405" fill="#D9B8FF" font-family="sans-serif" font-size="14" textLength="48">: string</text><rect width="227" height="310.758" x="88.5" y="7" fill="#3D176E" rx="2.5" ry="2.5" style="stroke:#000d19;stroke-width:.5"/><circle cx="157.25" cy="26.895" r="11" fill="#ADD1B2" style="stroke:#181818;stroke-width:1"/><path d="M160.219 32.535q-.578.297-1.219.438-.64.156-1.344.156-2.5 0-3.828-1.64-1.312-1.657-1.312-4.782t1.312-4.781q1.328-1.656 3.828-1.656.703 0 1.344.156.656.156 1.219.453v2.719q-.625-.578-1.219-.844-.594-.281-1.219-.281-1.344 0-2.031 1.078-.687 1.062-.687 3.156t.687 3.172q.688 1.062 2.031 1.062.625 0 1.219-.265.594-.281 1.219-.86z"/><text x="182.75" y="32.78" fill="#D9B8FF" font-family="Helvetica" font-size="17" textLength="71">resource</text><path d="M89.5 46.789h225" style="stroke:#000d19;stroke-width:.5"/><text x="99.5" y="68.784" fill="#D9B8FF" font-family="sans-serif" font-size="14" font-weight="bold" textLength="29">age</text><text x="128.5" y="68.784" fill="#D9B8FF" font-family="sans-serif" font-size="14" textLength="66">: duration</text><text x="99.5" y="95.081" fill="#D9B8FF" font-family="sans-serif" font-size="14" font-weight="bold" textLength="43">atime</text><text x="142.5" y="95.081" fill="#D9B8FF" font-family="sans-serif" font-size="14" textLength="70">: datetime</text><text x="99.5" y="121.378" fill="#D9B8FF" font-family="sans-serif" font-size="14" font-weight="bold" textLength="43">ctime</text><text x="142.5" y="121.378" fill="#D9B8FF" font-family="sans-serif" font-size="14" textLength="70">: datetime</text><text x="99.5" y="147.675" fill="#D9B8FF" font-family="sans-serif" font-size="14" font-weight="bold" textLength="14">id</text><text x="113.5" y="147.675" fill="#D9B8FF" font-family="sans-serif" font-size="14" textLength="48">: string</text><text x="99.5" y="173.972" fill="#D9B8FF" font-family="sans-serif" font-size="14" font-weight="bold" textLength="33">kind</text><text x="132.5" y="173.972" fill="#D9B8FF" font-family="sans-serif" font-size="14" textLength="48">: string</text><text x="99.5" y="200.269" fill="#D9B8FF" font-family="sans-serif" font-size="14" font-weight="bold" textLength="90">last_access</text><text x="189.5" y="200.269" fill="#D9B8FF" font-family="sans-serif" font-size="14" textLength="66">: duration</text><text x="99.5" y="226.565" fill="#D9B8FF" font-family="sans-serif" font-size="14" font-weight="bold" textLength="90">last_update</text><text x="189.5" y="226.565" fill="#D9B8FF" font-family="sans-serif" font-size="14" textLength="66">: duration</text><text x="99.5" y="252.862" fill="#D9B8FF" font-family="sans-serif" font-size="14" font-weight="bold" textLength="48">mtime</text><text x="147.5" y="252.862" fill="#D9B8FF" font-family="sans-serif" font-size="14" textLength="70">: datetime</text><text x="99.5" y="279.159" fill="#D9B8FF" font-family="sans-serif" font-size="14" font-weight="bold" textLength="43">name</text><text x="142.5" y="279.159" fill="#D9B8FF" font-family="sans-serif" font-size="14" textLength="48">: string</text><text x="99.5" y="305.456" fill="#D9B8FF" font-family="sans-serif" font-size="14" font-weight="bold" textLength="34">tags</text><text x="133.5" y="305.456" fill="#D9B8FF" font-family="sans-serif" font-size="14" textLength="171">: dictionary[string, string]</text><path fill="none" d="M202 336.18v102.33m0-120.33-6 18h12zm0 213.02v102.24m0-120.24-6 18h12z" style="stroke:#ffaf37;stroke-width:2"/></svg>
